packages/icons/svg/Fill/message-square.svg

<svg fill="none" height="24" viewBox="0 0 24 24" width="24" xmlns="http://www.w3.org/2000/svg"><path clip-rule="evenodd" d="m16 11.9999c-.552 0-1-.448-1-1s.448-.99997 1-.99997 1 .44797 1 .99997-.448 1-1 1zm-4 0c-.552 0-1-.448-1-1s.448-.99997 1-.99997 1 .44797 1 .99997-.448 1-1 1zm-3.99995 0c-.552 0-1-.448-1-1s.448-.99997 1-.99997 1 .44797 1 .99997-.448 1-1 1zm10.99995-8.9999h-13.99997c-1.654 0-3 1.346-3 3v15c0 .36.194.693.507.87.153.087.323.13.493.13.178 0 .356-.047.515-.143l4.524-2.714c.156-.094.334-.143.515-.143h10.44597c1.654 0 3-1.346 3-3v-10c0-1.654-1.346-3-3-3z" fill="#6b7280" fill-rule="evenodd"/></svg>

<svg width="24" height="24" viewBox="0 0 24 24" fill="none" xmlns="http://www.w3.org/2000/svg">
<g id="Icon/Fill/message-square">
<path id="Mask" fill-rule="evenodd" clip-rule="evenodd" d="M16 12C15.448 12 15 11.552 15 11C15 10.448 15.448 10 16 10C16.552 10 17 10.448 17 11C17 11.552 16.552 12 16 12ZM12 12C11.448 12 11 11.552 11 11C11 10.448 11.448 10 12 10C12.552 10 13 10.448 13 11C13 11.552 12.552 12 12 12ZM8 12C7.448 12 7 11.552 7 11C7 10.448 7.448 10 8 10C8.552 10 9 10.448 9 11C9 11.552 8.552 12 8 12ZM19 3H5C3.346 3 2 4.346 2 6V21C2 21.36 2.194 21.693 2.507 21.87C2.66 21.957 2.83 22 3 22C3.178 22 3.356 21.953 3.515 21.857L8.039 19.143C8.195 19.049 8.373 19 8.554 19H19C20.654 19 22 17.654 22 16V6C22 4.346 20.654 3 19 3Z" fill="#000000"/>
</g>
</svg>
